storage/app/icons/phosphoricons/thin/gps-fix-thin.svg

<svg xmlns="http://www.w3.org/2000/svg" fill="currentColor" viewBox="0 0 256 256"><path d="M240 124h-28.1A84.11 84.11 0 0 0 132 44.1V16a4 4 0 0 0-8 0v28.1A84.11 84.11 0 0 0 44.1 124H16a4 4 0 0 0 0 8h28.1a84.11 84.11 0 0 0 79.9 79.9V240a4 4 0 0 0 8 0v-28.1a84.11 84.11 0 0 0 79.9-79.9H240a4 4 0 0 0 0-8m-112 80a76 76 0 1 1 76-76 76.08 76.08 0 0 1-76 76m0-112a36 36 0 1 0 36 36 36 36 0 0 0-36-36m0 64a28 28 0 1 1 28-28 28 28 0 0 1-28 28"/></svg>

<svg xmlns="http://www.w3.org/2000/svg" viewBox="0 0 256 256" fill="currentColor"><path d="M240,124H211.9A84.11,84.11,0,0,0,132,44.1V16a4,4,0,0,0-8,0V44.1A84.11,84.11,0,0,0,44.1,124H16a4,4,0,0,0,0,8H44.1A84.11,84.11,0,0,0,124,211.9V240a4,4,0,0,0,8,0V211.9A84.11,84.11,0,0,0,211.9,132H240a4,4,0,0,0,0-8ZM128,204a76,76,0,1,1,76-76A76.08,76.08,0,0,1,128,204Zm0-112a36,36,0,1,0,36,36A36,36,0,0,0,128,92Zm0,64a28,28,0,1,1,28-28A28,28,0,0,1,128,156Z"/></svg>
